svg/fluentui-system-icons/ic_fluent_hat_graduation_20_filled.svg

<svg width="20" height="20" viewBox="0 0 20 20" fill="none" xmlns="http://www.w3.org/2000/svg">
<path d="M4 14.4992V11.1642L8.00843 13.4655C9.24174 14.1735 10.7583 14.1735 11.9916 13.4655L16 11.1642V14.4992C16 14.6318 15.9473 14.759 15.8536 14.8528L15.852 14.8543L15.8496 14.8566L15.8428 14.8634L15.8201 14.8851C15.801 14.9031 15.7741 14.928 15.7394 14.9588C15.6701 15.0205 15.5696 15.1059 15.4389 15.2071C15.1777 15.4093 14.7948 15.6753 14.2978 15.9404C13.3033 16.4708 11.8479 16.9992 10 16.9992C8.15211 16.9992 6.69675 16.4708 5.70221 15.9404C5.20518 15.6753 4.82226 15.4093 4.5611 15.2071C4.43043 15.1059 4.32994 15.0205 4.26059 14.9588C4.22591 14.928 4.19898 14.9031 4.17992 14.8851L4.15724 14.8634C4.05938 14.7676 4 14.637 4 14.4992ZM18.7489 8.4329L11.4937 12.5982C10.5687 13.1293 9.4313 13.1293 8.50632 12.5982L2 8.86288L2 13.4992C2 13.7753 1.77614 13.9992 1.5 13.9992C1.22386 13.9992 1 13.7753 1 13.4992V7.99928C1 7.80928 1.10598 7.64395 1.26206 7.55934L8.5063 3.40025C8.85317 3.2011 9.22992 3.07663 9.61413 3.02685C9.73586 3.01107 9.85834 3.00279 9.98086 3.00201C10.3739 2.99951 10.7674 3.07417 11.1377 3.226C11.2591 3.27578 11.3781 3.33387 11.4937 3.40025L18.749 7.56566C18.9042 7.65482 19 7.82022 19 7.99928C19 8.17835 18.9042 8.34374 18.7489 8.4329Z" fill="#212121"/>
</svg>

<svg xmlns="http://www.w3.org/2000/svg" width="20" height="20"><path d="M4 14.5v-3.336l4.008 2.302a4 4 0 0 0 3.984 0L16 11.164V14.5a.5.5 0 0 1-.146.354l-.002.001-.002.003-.007.006-.023.022-.08.074c-.07.062-.17.147-.301.248a8.104 8.104 0 0 1-1.141.733A9.092 9.092 0 0 1 10 17a9.092 9.092 0 0 1-4.298-1.06 8.1 8.1 0 0 1-1.14-.733 5.772 5.772 0 0 1-.382-.322l-.023-.022A.513.513 0 0 1 4 14.5Zm14.749-6.067-7.255 4.165a3 3 0 0 1-2.988 0L2 8.863v4.636a.5.5 0 0 1-1 0V8a.5.5 0 0 1 .262-.44L8.506 3.4a2.997 2.997 0 0 1 2.988 0l7.255 4.166a.5.5 0 0 1 0 .867Z"/></svg>
